icon/lg/freedcamp-icon.svg

<?xml version="1.0" encoding="UTF-8"?>
<svg viewBox="0 0 256 228" version="1.1" xmlns="http://www.w3.org/2000/svg" xmlns:xlink="http://www.w3.org/1999/xlink" preserveAspectRatio="xMidYMid" height="1em" width="1em">
  <g>
    <path d="M90.624,148.451556 C99.7048889,148.451556 103.836444,152.768 104.469333,160.007111 L104.590222,160.007111 C104.567345,160.343472 104.548381,160.680087 104.533333,161.016889 C104.547556,161.358222 104.554667,161.713778 104.554667,162.076444 L104.554667,163.114667 C105.201778,173.937778 113.671111,182.705778 124.536889,184.078222 C125.361778,183.985778 126.236444,183.943111 127.153778,183.943111 L130.439111,183.943111 C140.871111,182.215111 148.885333,173.632 149.518222,163.107556 L149.518222,162.076444 C149.518222,161.628444 149.532444,161.201778 149.553778,160.775111 C149.547998,160.518866 149.536143,160.262794 149.518222,160.007111 L149.603556,160.007111 C150.243556,152.768 154.368,148.451556 163.456,148.451556 L177.386667,148.451556 L177.386667,162.076444 C177.386667,171.477333 172.487111,175.701333 163.448889,175.701333 L161.038222,175.701333 C151.004444,176.817778 142.947556,184.234667 141.091556,193.799111 L141.091556,197.568 C141.091556,199.608889 140.856889,201.400889 140.408889,202.958222 L140.408889,218.353778 C140.408889,223.409778 136.149333,227.555556 131.008,227.555556 L122.218667,227.555556 C117.041778,227.555556 112.824889,223.409778 112.824889,218.353778 L112.824889,197.283556 C112.824889,196.416 112.945778,195.576889 113.180444,194.773333 C111.665778,184.746667 103.409778,176.853333 93.0346667,175.701333 L90.6168889,175.701333 C81.5857778,175.701333 76.6862222,171.477333 76.6862222,162.076444 L76.6862222,148.451556 L90.624,148.451556 Z M127.160889,148.451556 C137.073778,148.451556 141.091556,156.615111 141.091556,162.076444 C141.091556,171.477333 136.184889,175.701333 127.153778,175.701333 C118.122667,175.701333 113.223111,170.552889 113.223111,162.076444 C113.223111,153.6 117.240889,148.451556 127.160889,148.451556 Z M14.7342222,110.272 C23.8151111,110.272 27.9466667,114.588444 28.5795556,121.820444 L28.7075556,121.820444 C28.6862222,122.161778 28.6577778,122.496 28.6435556,122.837333 C28.6577778,123.185778 28.6648889,123.534222 28.6648889,123.896889 L28.6648889,124.928 C29.3191111,135.758222 37.8382222,144.533333 48.6968889,145.891556 C49.5075556,145.806222 50.368,145.763556 51.2711111,145.763556 L54.5351111,145.763556 C64.7893333,144.078222 72.7608889,135.758222 73.6355556,125.475556 L73.6355556,123.896889 C73.6355556,123.399111 73.6497778,122.922667 73.6782222,122.453333 L73.6355556,121.820444 L73.7208889,121.820444 C74.3608889,114.588444 78.528,110.272 87.6088889,110.272 L101.546667,110.272 L101.546667,123.896889 C101.546667,133.297778 96.6044444,137.514667 87.6088889,137.514667 L85.1697778,137.514667 C75.1502222,138.631111 67.0648889,146.048 65.2017778,155.619556 L65.2017778,159.381333 C65.2017778,168.782222 60.3093333,172.999111 51.2711111,172.999111 C39.9502222,172.999111 37.3404444,167.857778 37.3404444,159.381333 C37.3404444,158.727111 37.3617778,158.101333 37.4115556,157.482667 C36.2737778,147.029333 27.8257778,138.702222 17.1733333,137.514667 L14.7342222,137.514667 C5.70311111,137.514667 0.796444444,133.297778 0.796444444,123.896889 L0.796444444,110.272 L14.7342222,110.272 Z M169.194667,110.272 C178.275556,110.272 182.407111,114.588444 183.04,121.820444 L183.168,121.820444 C183.146667,122.161778 183.118222,122.496 183.104,122.837333 C183.118222,123.185778 183.125333,123.534222 183.125333,123.896889 L183.125333,124.928 C183.772121,135.635152 192.106066,144.333634 202.788066,145.842387 L203.154,145.891 L203.645326,145.845476 C204.311609,145.790862 205.003378,145.763556 205.731556,145.763556 L208.995556,145.763556 C219.427556,144.056889 227.498667,135.459556 228.138667,124.928 L228.138667,123.896889 C228.138667,123.541333 228.138667,123.185778 228.16,122.837333 L228.088889,121.820444 L228.224,121.820444 C228.856889,114.588444 232.988444,110.272 242.069333,110.272 L256,110.272 L256,123.896889 C256,133.297778 251.064889,137.514667 242.062222,137.514667 L239.623111,137.514667 C229.610667,138.631111 221.525333,146.055111 219.662222,155.626667 L219.662222,159.381333 C219.662222,168.782222 214.762667,172.999111 205.731556,172.999111 C194.410667,172.999111 191.793778,167.857778 191.793778,159.381333 C191.793778,158.727111 191.822222,158.101333 191.864889,157.482667 C190.727111,147.029333 182.286222,138.702222 171.633778,137.514667 L169.194667,137.514667 C160.163556,137.514667 155.256889,133.297778 155.256889,123.896889 L155.256889,110.272 L169.194667,110.272 Z M205.731556,110.272 C215.651556,110.272 219.669333,118.428444 219.669333,123.896889 C219.669333,133.297778 214.762667,137.514667 205.731556,137.514667 C196.736,137.514667 191.793778,132.373333 191.793778,123.896889 C191.793778,115.413333 195.811556,110.272 205.731556,110.272 Z M51.2782222,110.272 C61.1911111,110.272 65.2017778,118.428444 65.2017778,123.896889 C65.2017778,133.172433 60.4389288,137.401295 51.6304271,137.512415 L51.275,137.514 L50.9091203,137.511777 C42.106685,137.373182 37.3404444,132.257218 37.3404444,123.896889 C37.3404444,115.413333 41.3582222,110.272 51.2782222,110.272 Z M90.624,73.1448889 C99.6977778,73.1448889 103.836444,77.4613333 104.462222,84.7004444 L104.590222,84.7004444 L104.533333,85.7102222 C104.547556,86.0586667 104.554667,86.4142222 104.554667,86.7768889 L104.554667,87.808 C105.208889,98.6382222 113.685333,107.406222 124.558222,108.764444 C125.376,108.679111 126.243556,108.636444 127.153778,108.636444 L130.410667,108.636444 C140.856889,106.915556 148.885333,98.3324444 149.518222,87.8008889 L149.518222,86.7697778 C149.518222,86.3288889 149.532444,85.8951111 149.553778,85.4684444 C149.552581,85.2120622 149.540719,84.9558406 149.518222,84.7004444 L149.610667,84.7004444 C150.236444,77.4613333 154.375111,73.1448889 163.456,73.1448889 L177.386667,73.1448889 L177.386667,86.7697778 C177.386667,96.1706667 172.487111,100.394667 163.448889,100.394667 L161.038222,100.394667 C151.004444,101.511111 142.947556,108.928 141.091556,118.499556 L141.091556,122.261333 C141.091556,131.662222 136.184889,135.879111 127.153778,135.879111 C115.832889,135.879111 113.223111,130.737778 113.223111,122.261333 C113.223111,121.607111 113.251556,120.981333 113.294222,120.362667 C112.156444,109.909333 103.715556,101.582222 93.0346667,100.394667 L90.6168889,100.394667 C81.5857778,100.394667 76.6862222,96.1706667 76.6862222,86.7697778 L76.6862222,73.1448889 L90.624,73.1448889 Z M127.160889,73.1377778 C137.073778,73.1377778 141.091556,81.2942222 141.091556,86.7626667 C141.091556,96.1635556 136.184889,100.387556 127.153778,100.387556 C118.122667,100.387556 113.223111,95.2391111 113.223111,86.7626667 C113.223111,78.2862222 117.240889,73.1377778 127.160889,73.1377778 Z M13.9377778,36.7288889 C23.0115556,36.7288889 27.1502222,41.0453333 27.776,48.2844444 L27.904,48.2844444 L27.84,49.2942222 C27.8542222,49.6426667 27.8613333,49.9911111 27.8613333,50.3537778 L27.8613333,51.3777778 C28.5155556,62.2151111 37.0346667,70.9973333 47.8933333,72.3555556 L47.8933333,72.3484444 C48.704,72.2631111 49.5644444,72.2204444 50.4675556,72.2204444 L53.7315556,72.2204444 C64.1706667,70.5137778 72.2488889,61.9093333 72.8746667,51.3635556 L72.8746667,50.3537778 C72.8746667,49.9982222 72.8746667,49.6426667 72.896,49.3013333 C72.8785957,48.9621345 72.8572609,48.6231488 72.832,48.2844444 L72.96,48.2844444 C73.5928889,41.0453333 77.7244444,36.7288889 86.8053333,36.7288889 L100.743111,36.7288889 L100.743111,50.3537778 C100.743111,59.7546667 95.8008889,63.9715556 86.8053333,63.9715556 L84.3662222,63.9715556 C74.3466667,65.088 66.2613333,72.5048889 64.3982222,82.0764444 L64.3982222,85.8382222 C64.3982222,95.2391111 59.5057778,99.4631111 50.4675556,99.4631111 C39.1893333,99.4631111 36.5368889,94.3217778 36.5368889,85.8382222 C36.5368889,85.184 36.5582222,84.5582222 36.608,83.9466667 C35.4702222,73.4933333 27.0293333,65.1591111 16.3768889,63.9715556 L13.9306667,63.9715556 C4.90666667,63.9715556 0,59.7546667 0,50.3537778 L0,36.7288889 L13.9377778,36.7288889 Z M256,36.7217778 L256,50.3466667 C256,59.7475556 251.064889,63.9644444 242.062222,63.9644444 L239.623111,63.9644444 C229.610667,65.0808889 221.525333,72.5048889 219.662222,82.0764444 L219.662222,85.8311111 C219.662222,95.232 214.762667,99.456 205.731556,99.456 C194.410667,99.456 191.793778,94.3146667 191.793778,85.8311111 C191.793778,85.1768889 191.822222,84.5511111 191.864889,83.9324444 C190.727111,73.4791111 182.286222,65.1591111 171.633778,63.9644444 L169.194667,63.9644444 C160.163556,63.9644444 155.256889,59.7475556 155.256889,50.3466667 L155.256889,36.7288889 L169.194667,36.7288889 C178.275556,36.7288889 182.407111,41.0453333 183.04,48.2844444 L183.168,48.2844444 L183.104,49.2942222 C183.118222,49.6426667 183.125333,49.9911111 183.125333,50.3537778 L183.125333,51.3777778 C183.779556,62.2151111 192.298667,70.9902222 203.157333,72.3555556 L203.150222,72.3484444 C203.968,72.2631111 204.821333,72.2204444 205.731556,72.2204444 L208.995556,72.2204444 C219.427556,70.5137778 227.498667,61.9164444 228.138667,51.3848889 L228.138667,50.3466667 C228.138667,49.9911111 228.138667,49.6355556 228.16,49.2871111 L228.088889,48.2773333 L228.224,48.2773333 C228.849778,41.0382222 232.988444,36.7217778 242.069333,36.7217778 L256,36.7217778 Z M50.4746667,36.7288889 C60.3875556,36.7288889 64.3982222,44.8853333 64.3982222,50.3537778 C64.3982222,59.7546667 59.5057778,63.9715556 50.4675556,63.9715556 C41.472,63.9715556 36.5368889,58.8302222 36.5368889,50.3537778 C36.5368889,41.8702222 40.5902222,36.7288889 50.4746667,36.7288889 Z M205.731556,36.7288889 C215.651556,36.7288889 219.669333,44.8853333 219.669333,50.3537778 C219.669333,59.7546667 214.762667,63.9715556 205.731556,63.9715556 C196.736,63.9715556 191.793778,58.8302222 191.793778,50.3537778 C191.793778,41.8702222 195.811556,36.7288889 205.731556,36.7288889 Z M90.624,0 C99.7048889,0 103.836444,4.31644444 104.462222,11.5555556 L104.590222,11.5555556 L104.533333,12.5653333 C104.547556,12.9137778 104.554667,13.2622222 104.554667,13.6248889 L104.554667,14.6631111 C105.208889,25.4933333 113.685333,34.2613333 124.558222,35.6195556 L124.558222,35.6266667 C125.376,35.5413333 126.243556,35.4986667 127.153778,35.4986667 L130.410667,35.4986667 C140.856889,33.7777778 148.885333,25.1946667 149.518222,14.6631111 L149.518222,13.632 C149.518222,13.1911111 149.532444,12.7573333 149.553778,12.3306667 C149.552581,12.0742844 149.540719,11.8180629 149.518222,11.5626667 L149.610667,11.5626667 C150.236444,4.31644444 154.375111,0 163.456,0 L177.386667,0 L177.386667,13.6248889 C177.386667,23.0257778 172.487111,27.2497778 163.448889,27.2497778 L161.002667,27.2497778 C150.983111,28.3875556 142.940444,35.7973333 141.091556,45.3475556 L141.091556,49.1164444 C141.091556,58.5173333 136.184889,62.7342222 127.153778,62.7342222 C115.832889,62.7342222 113.223111,57.5857778 113.223111,49.1164444 C113.223111,48.4622222 113.251556,47.8364444 113.294222,47.2177778 C112.156444,36.7715556 103.736889,28.4515556 93.0702222,27.2497778 L90.6168889,27.2497778 C81.5857778,27.2497778 76.6862222,23.0257778 76.6862222,13.6248889 L76.6862222,0 L90.624,0 Z M127.160889,0 C137.073778,0 141.091556,8.15644444 141.091556,13.6248889 C141.091556,23.0257778 136.184889,27.2497778 127.153778,27.2497778 C118.122667,27.2497778 113.223111,22.1013333 113.223111,13.6248889 C113.223111,5.14844444 117.240889,0 127.160889,0 Z" fill="#38A1E7"/>
  </g>
</svg>

<svg width="256" height="228" xmlns="http://www.w3.org/2000/svg" preserveAspectRatio="xMidYMid"><path d="M90.624 148.452c9.08 0 13.212 4.316 13.845 11.555h.121c-.023.336-.042.673-.057 1.01.015.341.022.697.022 1.06v1.038c.647 10.823 9.116 19.59 19.982 20.963.825-.092 1.7-.135 2.617-.135h3.285c10.432-1.728 18.446-10.311 19.08-20.835v-1.032c0-.448.013-.874.035-1.3a16.213 16.213 0 0 0-.036-.769h.086c.64-7.239 4.764-11.555 13.852-11.555h13.93v13.624c0 9.401-4.899 13.625-13.937 13.625h-2.41c-10.035 1.117-18.091 8.534-19.947 18.098v3.769c0 2.04-.235 3.833-.683 5.39v15.396c0 5.056-4.26 9.202-9.401 9.202h-8.79c-5.176 0-9.393-4.146-9.393-9.202v-21.07c0-.868.12-1.707.355-2.51-1.514-10.027-9.77-17.92-20.145-19.073h-2.418c-9.031 0-13.93-4.224-13.93-13.625v-13.624h13.937Zm36.537 0c9.913 0 13.93 8.163 13.93 13.624 0 9.401-4.906 13.625-13.937 13.625-9.031 0-13.93-5.148-13.93-13.625 0-8.476 4.017-13.624 13.937-13.624Zm-112.427-38.18c9.081 0 13.213 4.316 13.846 11.548h.128c-.022.342-.05.676-.064 1.017.014.349.02.697.02 1.06v1.031c.655 10.83 9.174 19.605 20.033 20.964.81-.086 1.671-.128 2.574-.128h3.264c10.254-1.686 18.226-10.006 19.1-20.288v-1.58c0-.497.015-.973.043-1.443l-.042-.633h.085c.64-7.232 4.807-11.548 13.888-11.548h13.938v13.625c0 9.4-4.943 13.618-13.938 13.618h-2.44c-10.019 1.116-18.104 8.533-19.967 18.105v3.761c0 9.401-4.893 13.618-13.93 13.618-11.322 0-13.932-5.141-13.932-13.618 0-.654.022-1.28.072-1.898-1.138-10.454-9.586-18.78-20.239-19.968h-2.439c-9.03 0-13.938-4.217-13.938-13.618v-13.625h13.938Zm154.46 0c9.082 0 13.213 4.316 13.846 11.548h.128c-.021.342-.05.676-.064 1.017.014.349.021.697.021 1.06v1.031c.647 10.707 8.981 19.406 19.663 20.914l.366.049.491-.046a25.49 25.49 0 0 1 2.087-.081h3.264c10.432-1.707 18.503-10.304 19.143-20.836v-1.031c0-.356 0-.711.021-1.06l-.071-1.017h.135c.633-7.232 4.764-11.548 13.845-11.548H256v13.625c0 9.4-4.935 13.618-13.938 13.618h-2.439c-10.012 1.116-18.098 8.54-19.96 18.112v3.754c0 9.401-4.9 13.618-13.931 13.618-11.321 0-13.938-5.141-13.938-13.618 0-.654.028-1.28.07-1.898-1.137-10.454-9.578-18.78-20.23-19.968h-2.44c-9.03 0-13.937-4.217-13.937-13.618v-13.625h13.938Zm36.538 0c9.92 0 13.937 8.156 13.937 13.625 0 9.4-4.906 13.618-13.937 13.618-8.996 0-13.938-5.142-13.938-13.618 0-8.484 4.018-13.625 13.938-13.625Zm-154.454 0c9.913 0 13.924 8.156 13.924 13.625 0 9.275-4.763 13.504-13.572 13.615l-.355.002-.366-.002c-8.802-.139-13.569-5.255-13.569-13.615 0-8.484 4.018-13.625 13.938-13.625Zm39.346-37.127c9.074 0 13.212 4.316 13.838 11.555h.128l-.057 1.01c.015.349.022.704.022 1.067v1.031c.654 10.83 9.13 19.598 20.003 20.956a25.073 25.073 0 0 1 2.596-.128h3.257c10.446-1.72 18.474-10.304 19.107-20.835V86.77c0-.441.014-.875.036-1.302a9.244 9.244 0 0 0-.036-.768h.093c.625-7.239 4.764-11.555 13.845-11.555h13.93V86.77c0 9.4-4.899 13.625-13.937 13.625h-2.41c-10.035 1.116-18.091 8.533-19.947 18.105v3.761c0 9.401-4.907 13.618-13.938 13.618-11.321 0-13.93-5.141-13.93-13.618 0-.654.028-1.28.07-1.898-1.138-10.454-9.578-18.78-20.26-19.968h-2.417c-9.031 0-13.93-4.224-13.93-13.625V73.145h13.937Zm36.537-.007c9.913 0 13.93 8.156 13.93 13.625 0 9.4-4.906 13.625-13.937 13.625-9.031 0-13.93-5.149-13.93-13.625 0-8.477 4.017-13.625 13.937-13.625ZM13.938 36.728c9.074 0 13.212 4.317 13.838 11.556h.128l-.064 1.01c.014.349.021.697.021 1.06v1.024c.655 10.837 9.174 19.62 20.032 20.978v-.008c.811-.085 1.671-.128 2.575-.128h3.264c10.439-1.706 18.517-10.31 19.143-20.856v-1.01c0-.356 0-.711.021-1.053a43.96 43.96 0 0 0-.064-1.017h.128c.633-7.239 4.764-11.555 13.845-11.555h13.938v13.625c0 9.4-4.942 13.618-13.938 13.618h-2.439c-10.02 1.116-18.105 8.533-19.968 18.104v3.762c0 9.401-4.892 13.625-13.93 13.625-11.279 0-13.931-5.141-13.931-13.625 0-.654.021-1.28.071-1.891-1.138-10.454-9.579-18.788-20.231-19.975H13.93C4.907 63.972 0 59.755 0 50.354V36.729h13.938ZM256 36.723v13.625c0 9.4-4.935 13.617-13.938 13.617h-2.439c-10.012 1.117-18.098 8.54-19.96 18.112v3.755c0 9.401-4.9 13.625-13.931 13.625-11.321 0-13.938-5.141-13.938-13.625 0-.654.028-1.28.07-1.899-1.137-10.453-9.578-18.773-20.23-19.968h-2.44c-9.03 0-13.937-4.216-13.937-13.617V36.729h13.938c9.08 0 13.212 4.316 13.845 11.555h.128l-.064 1.01c.014.349.021.697.021 1.06v1.024c.655 10.837 9.174 19.612 20.032 20.978l-.007-.008a24.793 24.793 0 0 1 2.582-.128h3.264c10.432-1.706 18.503-10.304 19.143-20.835v-1.038c0-.356 0-.711.021-1.06l-.071-1.01h.135c.626-7.239 4.764-11.555 13.845-11.555H256Zm-205.525.007c9.913 0 13.923 8.156 13.923 13.625 0 9.4-4.892 13.618-13.93 13.618-8.996 0-13.931-5.142-13.931-13.618 0-8.484 4.053-13.625 13.938-13.625Zm155.257 0c9.92 0 13.937 8.156 13.937 13.625 0 9.4-4.906 13.618-13.937 13.618-8.996 0-13.938-5.142-13.938-13.618 0-8.484 4.018-13.625 13.938-13.625ZM90.624 0c9.08 0 13.212 4.316 13.838 11.556h.128l-.057 1.01c.015.348.022.696.022 1.059v1.038c.654 10.83 9.13 19.598 20.003 20.957v.007a25.073 25.073 0 0 1 2.596-.128h3.257c10.446-1.721 18.474-10.304 19.107-20.836v-1.031c0-.44.014-.875.036-1.301a9.244 9.244 0 0 0-.036-.768h.093C150.236 4.316 154.375 0 163.456 0h13.93v13.625c0 9.4-4.899 13.625-13.937 13.625h-2.446c-10.02 1.138-18.063 8.547-19.911 18.098v3.768c0 9.401-4.907 13.618-13.938 13.618-11.321 0-13.93-5.148-13.93-13.618 0-.654.028-1.28.07-1.898-1.138-10.446-9.557-18.766-20.224-19.968h-2.453c-9.031 0-13.93-4.224-13.93-13.625V0h13.937Zm36.537 0c9.913 0 13.93 8.156 13.93 13.625 0 9.4-4.906 13.625-13.937 13.625-9.031 0-13.93-5.149-13.93-13.625C113.223 5.148 117.24 0 127.16 0Z" fill="#38A1E7"/></svg>
